images/corner-end.svg

<svg fill="none" height="25" viewBox="0 0 25 25" width="25" xmlns="http://www.w3.org/2000/svg" xmlns:xlink="http://www.w3.org/1999/xlink"><mask id="a" fill="#fff"><path d="m0 0h25v25h-24.99999948z" fill="#fff"/></mask><path d="m.00000052 25h-.99999952v1h.99999954zm24.99999948-1h-24.9999995l.00000004 2h24.99999946zm-24 1v-25h-2l.000001 25z" fill="#ff0070" mask="url(#a)"/></svg>

<svg width="25" height="25" viewBox="0 0 25 25" fill="none" xmlns="http://www.w3.org/2000/svg">
<mask id="path-1-inside-1_601_465" fill="white">
<path d="M0 0L25 0L25 25L5.16079e-07 25L0 0Z"/>
</mask>
<path d="M5.16079e-07 25H-0.999999L-0.999999 26H5.36722e-07L5.16079e-07 25ZM25 24L4.95436e-07 24L5.36722e-07 26L25 26L25 24ZM1 25L1 0L-1 0L-0.999999 25H1Z" fill="#FF0070" mask="url(#path-1-inside-1_601_465)"/>
</svg>
